file/bjs.svg

<svg clip-rule="evenodd" fill-rule="evenodd" stroke-linejoin="round" stroke-miterlimit="1.41421" viewBox="0 0 560 400" xmlns="http://www.w3.org/2000/svg"><g fill-rule="nonzero" transform="matrix(5.64822 0 0 5.64822 -1640.57 -2757.89)"><path d="m353.289 508.493 2.056-.249c1.982-2.573 3.618-4.492 3.618-4.492s-2.974 2.182-5.674 4.741" fill="#c23054"/><path d="m363.933 538.21-44.048 5.41-3.755-30.566 44.053-5.406z" fill="#c23054"/><path d="m29.553 40.065c1.84-2.119 3.1-5.625 2.675-9.091l-2.334-18.98-5.39.659 2.246 17.793c.361 2.92-.415 5.371-2.339 6.885l2.979 2.998zm-11.933-2.021-8.37 1.031-2.968-24.19 8.647-1.064c3.369-.415 6.47.722 7.012 5.161.268 2.187-.42 4.599-2.642 5.752 2.129.371 4.341 2.036 4.698 4.951.542 4.409-1.548 7.769-6.377 8.359zm24.062-2.525c-2.022.245-4.18-.122-6.382-1.088l1.235-4.156c1.255.62 3.316 1.45 4.741 1.275.86-.108 1.402-.62 1.333-1.182-.322-2.617-7.026.103-7.661-5.073-.386-3.155 1.616-5.723 5.191-6.162 2.485-.303 4.023.2 5.752.864l-1.114 3.916c-1.235-.454-2.27-.972-3.432-.884-.874.064-1.617.459-1.529 1.177.313 2.417 7.149-.42 7.813 5.024.41 3.33-2.007 5.801-5.947 6.289zm-26.465-7.572-1.806.224.659 5.376 1.875-.229c1.528-.191 2.046-1.45 1.86-2.945-.146-1.21-.752-2.651-2.588-2.426zm-1.059-9.204-1.88.229.566 4.58 1.944-.239c1.46-.176 1.884-1.284 1.733-2.534-.156-1.25-.942-2.212-2.363-2.036zm25.693-10.704c-3.101 2.989-5.108 5.528-5.108 5.528l-2.925-2.339 2.642 8.271.02.093s1.992-4.116 5.2-8.672c.84-1.196 1.714-2.368 2.534-3.427l-2.056.253zm3.691 6.884c.693-.083 1.308.411 1.391 1.114.093.713-.39 1.333-1.089 1.421-.688.087-1.318-.401-1.406-1.114-.083-.703.405-1.333 1.094-1.421zm.019.201c-.557.068-.957.6-.879 1.191.069.601.581 1.016 1.148.947.561-.063.952-.595.879-1.191-.079-.596-.581-1.016-1.143-.947zm-.019 1.831-.22.024-.176-1.406c.117-.034.225-.064.396-.083.21-.025.356 0 .449.054.093.049.151.141.166.278.024.181-.088.312-.23.376v.01c.122.005.225.107.279.312.058.215.102.293.132.337l-.24.03c-.039-.044-.088-.166-.136-.347-.059-.176-.157-.234-.337-.21l-.157.019zm-.093-.782.166-.019c.181-.025.332-.107.312-.283-.019-.127-.127-.24-.376-.205l-.161.029z" fill="#fff" transform="translate(313.13 500.752)"/></g></svg>

<?xml version="1.0" encoding="UTF-8" standalone="no"?>
<!DOCTYPE svg PUBLIC "-//W3C//DTD SVG 1.1//EN" "http://www.w3.org/Graphics/SVG/1.1/DTD/svg11.dtd">
<svg width="100%" height="100%" viewBox="0 0 560 400" version="1.1" xmlns="http://www.w3.org/2000/svg" xmlns:xlink="http://www.w3.org/1999/xlink" xml:space="preserve" xmlns:serif="http://www.serif.com/" style="fill-rule:evenodd;clip-rule:evenodd;stroke-linejoin:round;stroke-miterlimit:1.41421;">
    <g transform="matrix(5.64822,0,0,5.64822,-1640.57,-2757.89)">
        <path d="M353.289,508.493L355.345,508.244C357.327,505.671 358.963,503.752 358.963,503.752C358.963,503.752 355.989,505.934 353.289,508.493" style="fill:rgb(194,48,84);fill-rule:nonzero;"/>
        <path d="M363.933,538.21L319.885,543.62L316.13,513.054L360.183,507.648L363.933,538.21Z" style="fill:rgb(194,48,84);fill-rule:nonzero;"/>
        <g transform="matrix(1,0,0,1,313.13,500.752)">
            <path d="M29.553,40.065C31.393,37.946 32.653,34.44 32.228,30.974L29.894,11.994L24.504,12.653L26.75,30.446C27.111,33.366 26.335,35.817 24.411,37.331L27.39,40.329L29.553,40.065ZM17.62,38.044L9.25,39.075L6.282,14.885L14.929,13.821C18.298,13.406 21.399,14.543 21.941,18.982C22.209,21.169 21.521,23.581 19.299,24.734C21.428,25.105 23.64,26.77 23.997,29.685C24.539,34.094 22.449,37.454 17.62,38.044L17.62,38.044ZM41.682,35.519C39.66,35.764 37.502,35.397 35.3,34.431L36.535,30.275C37.79,30.895 39.851,31.725 41.276,31.55C42.136,31.442 42.678,30.93 42.609,30.368C42.287,27.751 35.583,30.471 34.948,25.295C34.562,22.14 36.564,19.572 40.139,19.133C42.624,18.83 44.162,19.333 45.891,19.997L44.777,23.913C43.542,23.459 42.507,22.941 41.345,23.029C40.471,23.093 39.728,23.488 39.816,24.206C40.129,26.623 46.965,23.786 47.629,29.23C48.039,32.56 45.622,35.031 41.682,35.519ZM15.217,27.947L13.411,28.171L14.07,33.547L15.945,33.318C17.473,33.127 17.991,31.868 17.805,30.373C17.659,29.163 17.053,27.722 15.217,27.947ZM14.158,18.743L12.278,18.972L12.844,23.552L14.788,23.313C16.248,23.137 16.672,22.029 16.521,20.779C16.365,19.529 15.579,18.567 14.158,18.743ZM39.851,8.039C36.75,11.028 34.743,13.567 34.743,13.567L31.818,11.228L34.46,19.499L34.48,19.592C34.48,19.592 36.472,15.476 39.68,10.92C40.52,9.724 41.394,8.552 42.214,7.493L40.158,7.746L39.851,8.039ZM43.542,14.923C44.235,14.84 44.85,15.334 44.933,16.037C45.026,16.75 44.543,17.37 43.844,17.458C43.156,17.545 42.526,17.057 42.438,16.344C42.355,15.641 42.843,15.011 43.532,14.923L43.542,14.923ZM43.561,15.124C43.004,15.192 42.604,15.724 42.682,16.315C42.751,16.916 43.263,17.331 43.83,17.262C44.391,17.199 44.782,16.667 44.709,16.071C44.63,15.475 44.128,15.055 43.566,15.124L43.561,15.124ZM43.542,16.955L43.322,16.979L43.146,15.573C43.263,15.539 43.371,15.509 43.542,15.49C43.752,15.465 43.898,15.49 43.991,15.544C44.084,15.593 44.142,15.685 44.157,15.822C44.181,16.003 44.069,16.134 43.927,16.198L43.927,16.208C44.049,16.213 44.152,16.315 44.206,16.52C44.264,16.735 44.308,16.813 44.338,16.857L44.098,16.887C44.059,16.843 44.01,16.721 43.962,16.54C43.903,16.364 43.805,16.306 43.625,16.33L43.468,16.349L43.542,16.955ZM43.449,16.173L43.615,16.154C43.796,16.129 43.947,16.047 43.927,15.871C43.908,15.744 43.8,15.631 43.551,15.666L43.39,15.695L43.449,16.173Z" style="fill:white;fill-rule:nonzero;"/>
        </g>
    </g>
</svg>
